X:1
T:Hundred Pipers
L:1/8
M:6/8
I:linebreak $
K:A
V:1 treble
V:1
"A" c2 E EFE | "D"F2 A A2 f | "A"e2 c cBA |"Bm" BcB"E" BAB |$
 "A"c2 E EFE | "D"F2 A A2 f | "A"e2 c "E"BcB |1  "A"A3 A2 B :|2 "A"A3 c2 d |:$
 "A"e2 e ece | "D"f2 a agf | "A"e2 c cBA |"Bm" BcB"E" Bcd |$
 "A"e2 e ece | "D"f2 a agf |  "A"e2 c "E"BcB |1 "A"A3 A2 d :|2 "A"A3 A2 B |]
